svg/device/keyboard_line.svg

<?xml version="1.0" encoding="UTF-8"?>
<svg width="24px" height="24px" viewBox="0 0 24 24" version="1.1" xmlns="http://www.w3.org/2000/svg" xmlns:xlink="http://www.w3.org/1999/xlink">
    <title>keyboard_line</title>
    <g id="页面-1" stroke="none" stroke-width="1" fill="none" fill-rule="evenodd">
        <g id="Device" transform="translate(-912.000000, 0.000000)" fill-rule="nonzero">
            <g id="keyboard_line" transform="translate(912.000000, 0.000000)">
                 <path d="M24,0 L24,24 L0,24 L0,0 L24,0 Z M12.5934901,23.257841 L12.5819402,23.2595131 L12.5108777,23.2950439 L12.4918791,23.2987469 L12.4918791,23.2987469 L12.4767152,23.2950439 L12.4056548,23.2595131 C12.3958229,23.2563662 12.3870493,23.2590235 12.3821421,23.2649074 L12.3780323,23.275831 L12.360941,23.7031097 L12.3658947,23.7234994 L12.3769048,23.7357139 L12.4804777,23.8096931 L12.4953491,23.8136134 L12.4953491,23.8136134 L12.5071152,23.8096931 L12.6106902,23.7357139 L12.6232938,23.7196733 L12.6232938,23.7196733 L12.6266527,23.7031097 L12.609561,23.275831 C12.6075724,23.2657013 12.6010112,23.2592993 12.5934901,23.257841 L12.5934901,23.257841 Z M12.8583906,23.1452862 L12.8445485,23.1473072 L12.6598443,23.2396597 L12.6498822,23.2499052 L12.6498822,23.2499052 L12.6471943,23.2611114 L12.6650943,23.6906389 L12.6699349,23.7034178 L12.6699349,23.7034178 L12.678386,23.7104931 L12.8793402,23.8032389 C12.8914285,23.8068999 12.9022333,23.8029875 12.9078286,23.7952264 L12.9118235,23.7811639 L12.8776777,23.1665331 C12.8752882,23.1545897 12.8674102,23.1470016 12.8583906,23.1452862 L12.8583906,23.1452862 Z M12.1430473,23.1473072 C12.1332178,23.1423925 12.1221763,23.1452606 12.1156365,23.1525954 L12.1099173,23.1665331 L12.0757714,23.7811639 C12.0751323,23.7926639 12.0828099,23.8018602 12.0926481,23.8045676 L12.108256,23.8032389 L12.3092106,23.7104931 L12.3186497,23.7024347 L12.3186497,23.7024347 L12.3225043,23.6906389 L12.340401,23.2611114 L12.337245,23.2485176 L12.337245,23.2485176 L12.3277531,23.2396597 L12.1430473,23.1473072 Z" id="MingCute" fill-rule="nonzero"></path>
                <path d="M20,4 C21.0543909,4 21.9181678,4.81587733 21.9945144,5.85073759 L22,6 L22,18 C22,19.0543909 21.18415,19.9181678 20.1492661,19.9945144 L20,20 L4,20 C2.94563773,20 2.08183483,19.18415 2.00548573,18.1492661 L2,18 L2,6 C2,4.94563773 2.81587733,4.08183483 3.85073759,4.00548573 L4,4 L20,4 Z M20,6 L4,6 L4,18 L20,18 L20,6 Z M17,14 C17.5523,14 18,14.4477 18,15 C18,15.51285 17.613973,15.9355092 17.1166239,15.9932725 L17,16 L7,16 C6.44771,16 6,15.5523 6,15 C6,14.48715 6.38604429,14.0644908 6.88337975,14.0067275 L7,14 L17,14 Z M8,11 C8.55229,11 9,11.4477 9,12 C9,12.5523 8.55228,13 8,13 L7,13 C6.44771,13 6,12.5523 6,12 C6,11.4477 6.44772,11 7,11 L8,11 Z M12.5,11 C13.0523,11 13.5,11.4477 13.5,12 C13.5,12.51285 13.113973,12.9355092 12.6166239,12.9932725 L12.5,13 L11.5,13 C10.9477,13 10.5,12.5523 10.5,12 C10.5,11.48715 10.886027,11.0644908 11.3833761,11.0067275 L11.5,11 L12.5,11 Z M17,11 C17.5523,11 18,11.4477 18,12 C18,12.5523 17.5523,13 17,13 L16,13 C15.4477,13 15,12.5523 15,12 C15,11.4477 15.4477,11 16,11 L17,11 Z M8,8 C8.55229,8 9,8.44772 9,9 C9,9.51283143 8.61395571,9.93550653 8.11662025,9.9932722 L8,10 L7,10 C6.44771,10 6,9.55228 6,9 C6,8.48716857 6.38604429,8.06449347 6.88337975,8.0067278 L7,8 L8,8 Z M12.5,8 C13.0523,8 13.5,8.44772 13.5,9 C13.5,9.55228 13.0523,10 12.5,10 L11.5,10 C10.9477,10 10.5,9.55228 10.5,9 C10.5,8.44772 10.9477,8 11.5,8 L12.5,8 Z M17,8 C17.5523,8 18,8.44772 18,9 C18,9.51283143 17.613973,9.93550653 17.1166239,9.9932722 L17,10 L16,10 C15.4477,10 15,9.55228 15,9 C15,8.48716857 15.386027,8.06449347 15.8833761,8.0067278 L16,8 L17,8 Z" id="形状" fill="#09244B"></path>
            </g>
        </g>
    </g>
</svg>

<svg xmlns="http://www.w3.org/2000/svg" width="24" height="24"><g fill="none" fill-rule="nonzero"><path d="M24 0v24H0V0h24ZM12.593 23.258l-.011.002-.071.035-.02.004-.014-.004-.071-.035c-.01-.004-.019-.001-.024.005l-.004.01-.017.428.005.02.01.013.104.074.015.004.012-.004.104-.074.012-.016.004-.017-.017-.427c-.002-.01-.009-.017-.017-.018Zm.265-.113-.013.002-.185.093-.01.01-.003.011.018.43.005.012.008.007.201.093c.012.004.023 0 .029-.008l.004-.014-.034-.614c-.003-.012-.01-.02-.02-.022Zm-.715.002a.023.023 0 0 0-.027.006l-.006.014-.034.614c0 .012.007.02.017.024l.015-.002.201-.093.01-.008.004-.011.017-.43-.003-.012-.01-.01-.184-.092Z"/><path fill="#09244B" d="M20 4a2 2 0 0 1 1.995 1.85L22 6v12a2 2 0 0 1-1.85 1.995L20 20H4a2 2 0 0 1-1.995-1.85L2 18V6a2 2 0 0 1 1.85-1.995L4 4h16Zm0 2H4v12h16V6Zm-3 8a1 1 0 0 1 .117 1.993L17 16H7a1 1 0 0 1-.117-1.993L7 14h10Zm-9-3a1 1 0 1 1 0 2H7a1 1 0 1 1 0-2h1Zm4.5 0a1 1 0 0 1 .117 1.993L12.5 13h-1a1 1 0 0 1-.117-1.993L11.5 11h1Zm4.5 0a1 1 0 1 1 0 2h-1a1 1 0 1 1 0-2h1ZM8 8a1 1 0 0 1 .117 1.993L8 10H7a1 1 0 0 1-.117-1.993L7 8h1Zm4.5 0a1 1 0 1 1 0 2h-1a1 1 0 1 1 0-2h1ZM17 8a1 1 0 0 1 .117 1.993L17 10h-1a1 1 0 0 1-.117-1.993L16 8h1Z"/></g></svg>
